X: 9
T: Tobin's Favourite
M: 6/8
L: 1/8
R: Jig
K: D
A/F/|DFA dcd|ecA cde|fdf gfg|ecA GFE|
DFA dcd|ecA cde|(3fgaf gec|edc d2 :|
d|dfa agf|(3efge efg|fdf gfg|ecA GFE|
DFA dcd|ecA cde|(3fgaf gec|edc d2 :|
